assets/icons/qvision/surround_sound.svg

<svg xmlns="http://www.w3.org/2000/svg" height="24" viewBox="0 0 24 24" width="24"><path d="M0 0h24v24H0z" fill="none"/><path d="M20 4H4c-1.1 0-2 .9-2 2v12c0 1.1.9 2 2 2h16c1.1 0 2-.9 2-2V6c0-1.1-.9-2-2-2zM7.76 16.24l-1.41 1.41C4.78 16.1 4 14.05 4 12c0-2.05.78-4.1 2.34-5.66l1.41 1.41C6.59 8.93 6 10.46 6 12s.59 3.07 1.76 4.24zM12 16c-2.21 0-4-1.79-4-4s1.79-4 4-4 4 1.79 4 4-1.79 4-4 4zm5.66 1.66l-1.41-1.41C17.41 15.07 18 13.54 18 12s-.59-3.07-1.76-4.24l1.41-1.41C19.22 7.9 20 9.95 20 12c0 2.05-.78 4.1-2.34 5.66zM12 10c-1.1 0-2 .9-2 2s.9 2 2 2 2-.9 2-2-.9-2-2-2z"/></svg>

<svg width="24" height="24" viewBox="0 0 24 24" fill="none" xmlns="http://www.w3.org/2000/svg">
<g clip-path="url(#clip0_147_1676)">
<path d="M20 4H4C2.9 4 2 4.9 2 6V18C2 19.1 2.9 20 4 20H20C21.1 20 22 19.1 22 18V6C22 4.9 21.1 4 20 4ZM7.76 16.24L6.35 17.65C4.78 16.1 4 14.05 4 12C4 9.95 4.78 7.9 6.34 6.34L7.75 7.75C6.59 8.93 6 10.46 6 12C6 13.54 6.59 15.07 7.76 16.24ZM12 16C9.79 16 8 14.21 8 12C8 9.79 9.79 8 12 8C14.21 8 16 9.79 16 12C16 14.21 14.21 16 12 16ZM17.66 17.66L16.25 16.25C17.41 15.07 18 13.54 18 12C18 10.46 17.41 8.93 16.24 7.76L17.65 6.35C19.22 7.9 20 9.95 20 12C20 14.05 19.22 16.1 17.66 17.66ZM12 10C10.9 10 10 10.9 10 12C10 13.1 10.9 14 12 14C13.1 14 14 13.1 14 12C14 10.9 13.1 10 12 10Z" fill="#323232"/>
</g>
<defs>
<clipPath id="clip0_147_1676">
<rect width="24" height="24" fill="white"/>
</clipPath>
</defs>
</svg>
